X:753
%%etbk:tnset id:483,pos:3,rep:3x,ant:
%%etbk:wsite https://thesession.org/tunes/7559
%%etbk:pldat 2015-06-17T17:31,2015-06-13T16:31,2015-06-10T17:47,2015-06-08T18:06
T: The Goat's
Z: Piano Box Version by Martin Fleischmann
H: Created 2015-06-10 /  Last Modified 2015-06-10
R: polka
M: 2/4
L: 1/8
K: Bmin
|:!5!f2 !3!f>!2!e|!1!d!2!B !1!FB|dB BA|!4!ec d!4!e|
!3!f2 f>e|dB FB|!4!dB B!1!A|1!2!F2 !1!F!4!e:|2!2!F2 FA|
|:!3!B>!2!B !1!B!2!c|!3!d!1!A !2!de|!4!fg/f/ !3!ed|!1!FA Bc|
B>B Bc|dA de|fg/f/ ed|1,2,3F2 F2:||4A2 A2:|


